X: 10
T: Old Copperplate, The
Z: leprecawn
S: https://thesession.org/tunes/410#setting51170
R: reel
M: 4/4
L: 1/8
K: Ador
||:A2 EA cA A2|aged cAFA|G3 A BGBd|gedc BGGB|
A2 EA cA A2|aged cA A2|ABcd efgfe|aged cA A2:||
||:ageg a3 b|aged cA A2|gfef g3 a|gedc BG G2|
ageg a3 b |aged cA A2|ABcd efge|aged cA A2:|

